imgs/03-01-line2.svg

<svg xmlns="http://www.w3.org/2000/svg" width="640" height="750" viewBox="0 0 640 750"><path fill="#fff" d="M325.269 378.09l-.785-1.84c2.427-1.035 4.877-2.094 7.354-3.179l.802 1.833c-2.482 1.085-4.94 2.148-7.371 3.186m-11.096 4.638l-.758-1.851c2.438-.998 4.902-2.019 7.394-3.068l.774 1.844c-2.498 1.051-4.966 2.076-7.41 3.075m-11.173 4.465l-.727-1.864c2.45-.956 4.929-1.938 7.438-2.948l.746 1.854c-2.515 1.013-5.001 1.998-7.457 2.958m-11.25 4.28l-.696-1.877c2.467-.912 4.962-1.854 7.49-2.823l.716 1.867c-2.535.972-5.037 1.917-7.51 2.833m-11.329 4.075l-.661-1.888c2.483-.866 4.998-1.762 7.548-2.689l.683 1.879c-2.557.929-5.081 1.829-7.57 2.698m-11.406 3.854l-.621-1.9c2.496-.814 5.025-1.66 7.592-2.537l.648 1.892c-2.578.88-5.115 1.728-7.619 2.545m-11.482 3.611l-.579-1.915c2.504-.756 5.048-1.546 7.631-2.368l.608 1.906c-2.593.825-5.147 1.618-7.66 2.377m-11.581 3.349l-.533-1.927c2.525-.698 5.091-1.428 7.702-2.194l.565 1.919c-2.622.77-5.201 1.502-7.734 2.202m-11.658 3.055l-.481-1.942c2.535-.627 5.117-1.291 7.746-1.991l.517 1.931c-2.605.695-5.224 1.368-7.782 2.002m-11.744 2.725l-.423-1.954c2.548-.552 5.146-1.142 7.8-1.771l.462 1.945c-2.626.623-5.262 1.224-7.839 1.78m-11.833 2.36l-.358-1.967c2.558-.467 5.177-.973 7.856-1.522l.402 1.958c-2.65.546-5.306 1.06-7.9 1.531m-11.919 1.946l-.283-1.979c2.564-.369 5.2-.781 7.902-1.239l.335 1.971c-2.671.453-5.346.872-7.954 1.247m-11.99 1.473l-.2-1.992c2.569-.258 5.217-.563 7.946-.916l.256 1.983c-2.691.35-5.383.66-8.002.925m-12.062.923l-.103-1.998c2.565-.131 5.223-.311 7.978-.546l.17 1.994c-2.712.229-5.418.414-8.045.55m-12.111.277l.013-2c2.548.019 5.212-.015 7.998-.106l.066 1.998c-2.733.091-5.449.127-8.077.108m-12.122-.494l.154-1.993c2.508.193 5.167.337 7.981.418l-.059 1.998c-2.745-.079-5.464-.221-8.076-.423m-12.092-1.454l.331-1.973c2.427.406 5.069.771 7.929 1.07l-.206 1.99c-2.765-.289-5.475-.656-8.054-1.087m-11.934-2.715l.569-1.916c2.223.66 4.804 1.32 7.763 1.927l-.4 1.961c-2.781-.572-5.45-1.234-7.932-1.972m-11.606-4.8l1.11-1.664c.008.006 2.273 1.515 7.262 3.306l-.675 1.884c-5.163-1.854-7.587-3.452-7.689-3.519l-.008-.007"/></svg>

<?xml version="1.0" encoding="utf-8"?>
<!-- Generator: Adobe Illustrator 16.0.0, SVG Export Plug-In . SVG Version: 6.00 Build 0)  -->
<!DOCTYPE svg PUBLIC "-//W3C//DTD SVG 1.1//EN" "http://www.w3.org/Graphics/SVG/1.1/DTD/svg11.dtd">
<svg version="1.1" id="图层_1" xmlns="http://www.w3.org/2000/svg" xmlns:xlink="http://www.w3.org/1999/xlink" x="0px" y="0px"
	 width="640px" height="750px" viewBox="0 0 640 750" enable-background="new 0 0 640 750" xml:space="preserve">
<path fill="#FFFFFF" d="M325.269,378.09l-0.785-1.84c2.427-1.035,4.877-2.094,7.354-3.179l0.802,1.833
	C330.158,375.989,327.7,377.052,325.269,378.09 M314.173,382.728l-0.758-1.851c2.438-0.998,4.902-2.019,7.394-3.068l0.774,1.844
	C319.085,380.704,316.617,381.729,314.173,382.728 M303,387.193l-0.727-1.864c2.45-0.956,4.929-1.938,7.438-2.948l0.746,1.854
	C307.942,385.248,305.456,386.233,303,387.193 M291.75,391.473l-0.696-1.877c2.467-0.912,4.962-1.854,7.49-2.823l0.716,1.867
	C296.725,389.612,294.223,390.557,291.75,391.473 M280.421,395.548l-0.661-1.888c2.483-0.866,4.998-1.762,7.548-2.689l0.683,1.879
	C285.434,393.779,282.91,394.679,280.421,395.548 M269.015,399.402l-0.621-1.9c2.496-0.814,5.025-1.66,7.592-2.537l0.648,1.892
	C274.056,397.737,271.519,398.585,269.015,399.402 M257.533,403.013l-0.579-1.915c2.504-0.756,5.048-1.546,7.631-2.368l0.608,1.906
	C262.6,401.461,260.046,402.254,257.533,403.013 M245.952,406.362l-0.533-1.927c2.525-0.698,5.091-1.428,7.702-2.194l0.565,1.919
	C251.064,404.93,248.485,405.662,245.952,406.362 M234.294,409.417l-0.481-1.942c2.535-0.627,5.117-1.291,7.746-1.991l0.517,1.931
	C239.471,408.11,236.852,408.783,234.294,409.417 M222.55,412.142l-0.423-1.954c2.548-0.552,5.146-1.142,7.8-1.771l0.462,1.945
	C227.763,410.985,225.127,411.586,222.55,412.142 M210.717,414.502l-0.358-1.967c2.558-0.467,5.177-0.973,7.856-1.522l0.402,1.958
	C215.967,413.517,213.311,414.031,210.717,414.502 M198.798,416.448l-0.283-1.979c2.564-0.369,5.2-0.781,7.902-1.239l0.335,1.971
	C204.081,415.654,201.406,416.073,198.798,416.448 M186.808,417.921l-0.2-1.992c2.569-0.258,5.217-0.563,7.946-0.916l0.256,1.983
	C192.119,417.346,189.427,417.656,186.808,417.921 M174.746,418.844l-0.103-1.998c2.565-0.131,5.223-0.311,7.978-0.546l0.17,1.994
	C180.079,418.523,177.373,418.708,174.746,418.844 M162.635,419.121l0.013-2c2.548,0.019,5.212-0.015,7.998-0.106l0.066,1.998
	C167.979,419.104,165.263,419.14,162.635,419.121 M150.513,418.627l0.154-1.993c2.508,0.193,5.167,0.337,7.981,0.418l-0.059,1.998
	C155.844,418.971,153.125,418.829,150.513,418.627 M138.421,417.173l0.331-1.973c2.427,0.406,5.069,0.771,7.929,1.07l-0.206,1.99
	C143.71,417.971,141,417.604,138.421,417.173 M126.487,414.458l0.569-1.916c2.223,0.66,4.804,1.32,7.763,1.927l-0.4,1.961
	C131.638,415.858,128.969,415.196,126.487,414.458 M114.881,409.658l1.11-1.664c0.008,0.006,2.273,1.515,7.262,3.306l-0.675,1.884
	c-5.163-1.854-7.587-3.452-7.689-3.519L114.881,409.658"/>
</svg>
